src/icons/service-pivotal.svg

<?xml version="1.0" encoding="utf-8"?>
<!-- Generator: Adobe Illustrator 20.1.0, SVG Export Plug-In . SVG Version: 6.00 Build 0)  -->
<svg version="1.1" id="Layer_1" xmlns="http://www.w3.org/2000/svg" xmlns:xlink="http://www.w3.org/1999/xlink" x="0px" y="0px"
	 viewBox="0 0 14 11" style="enable-background:new 0 0 14 11;" xml:space="preserve">
<style type="text/css">
	.st0{fill:#008774;}
	.st1{fill:#00AE9E;}
</style>
<title>HDL/Icon/Standard/Service/pivotal</title>
<desc>Created with Sketch.</desc>
<g id="Colors">
	<g id="Service-icons" transform="translate(-123.000000, -1396.000000)">
		<g id="Pivotal_1_" transform="translate(102.000000, 1384.000000)">
			<g id="HDL_x2F_Icon_x2F_Standard_x2F_Service_x2F_pivotal" transform="translate(21.000000, 12.000000)">
				<g id="Pivotal">
					<path id="Path" class="st0" d="M8.2,8.5c0-2.2-1.8-4-4-4s-4,1.8-4,4c0,0.4,0,0.7,0.1,1.1l0,0c0,0.1,0.1,0.3,0.1,0.4
						c0,0,0.1,0,0.2,0h1.1c0.1,0,0.2-0.1,0.2-0.2V9.7c0-0.1-0.1-0.2-0.1-0.2l0,0C1.2,8.1,1.8,6.6,3.2,6S6,6,6.6,7.4
						c0.3,0.7,0.3,1.5,0,2.1l0,0c0,0.1-0.1,0.2-0.1,0.3c0,0.1,0,0.2,0.1,0.2c0,0,0,0,0.1,0h1.1c0.1,0,0.1,0,0.1-0.1
						C8,9.8,8,9.7,8,9.5l0,0C8.1,9.2,8.2,8.8,8.2,8.5z"/>
					<path id="Path_1_" class="st1" d="M8.7,3.1c-2.8,0-5.1,2.3-5.1,5.1c0,0.4,0.1,0.9,0.2,1.3l0,0c0,0.1,0.1,0.3,0.1,0.4
						C4,10,4,10,4.1,10h1.1c0.1,0,0.2-0.1,0.2-0.2c0,0,0,0,0-0.1c0-0.1-0.1-0.2-0.1-0.3l0,0c-0.7-2,0.3-4.1,2.3-4.8s4,0.4,4.7,2.4
						c0.3,0.8,0.3,1.7,0,2.6l0,0c0,0.1-0.1,0.2-0.1,0.3c0,0.1,0,0.2,0.1,0.2c0,0,0,0,0.1,0h1.1c0.1,0,0.1,0,0.1-0.1s0.1-0.3,0.1-0.4
						l0,0c0.7-2.7-0.9-5.5-3.6-6.2C9.6,3.2,9.2,3.1,8.7,3.1z"/>
					<path id="Path_2_" class="st0" d="M11.6,4.5C11.6,2,9.5,0,7.1,0C4.6,0,2.5,2,2.5,4.5c0,0.1,0,0.3,0,0.4h1.3
						C3.7,3.1,5,1.6,6.7,1.4c1.8-0.2,3.3,1.1,3.5,2.9c0,0.1,0,0.2,0,0.2c0,0.1,0,0.1,0,0.2l0,0c0,0.6-0.3,1.2-0.6,1.7
						c-0.1,0.1,0,0.2,0,0.2h0.1h1.2c0.1,0,0.1,0,0.2-0.1C11.4,5.9,11.6,5.2,11.6,4.5L11.6,4.5L11.6,4.5z"/>
				</g>
			</g>
		</g>
	</g>
</g>
</svg>

<?xml version="1.0" encoding="UTF-8"?>
<svg width="14px" height="11px" viewBox="0 0 14 11" version="1.1" xmlns="http://www.w3.org/2000/svg" xmlns:xlink="http://www.w3.org/1999/xlink">
    <!-- Generator: Sketch 59 (86127) - https://sketch.com -->
    <title>HDL/Icon/Standard/Service/pivotal</title>
    <desc>Created with Sketch.</desc>
    <g id="Colors" stroke="none" stroke-width="1" fill="none" fill-rule="evenodd">
        <g id="Service-icons" transform="translate(-123.000000, -1396.000000)">
            <g id="Pivotal" transform="translate(102.000000, 1384.000000)">
                <g id="HDL/Icon/Standard/Service/pivotal" transform="translate(21.000000, 12.000000)">
                    <g id="Pivotal">
                        <path d="M8.2,8.5 C8.2,6.3 6.4,4.5 4.2,4.5 C2,4.5 0.2,6.3 0.2,8.5 C0.2,8.9 0.2,9.2 0.3,9.6 L0.3,9.6 C0.3,9.7 0.4,9.9 0.4,10 C0.4,10 0.5,10 0.6,10 L1.7,10 C1.8,10 1.9,9.9 1.9,9.8 C1.9,9.8 1.9,9.7 1.9,9.7 C1.9,9.6 1.8,9.5 1.8,9.5 L1.8,9.5 C1.2,8.1 1.8,6.6 3.2,6 C4.6,5.4 6,6 6.6,7.4 C6.9,8.1 6.9,8.9 6.6,9.5 L6.6,9.5 C6.6,9.6 6.5,9.7 6.5,9.8 C6.5,9.9 6.5,10 6.6,10 C6.6,10 6.6,10 6.7,10 L7.8,10 C7.9,10 7.9,10 7.9,9.9 C8,9.8 8,9.7 8,9.5 L8,9.5 C8.1,9.2 8.2,8.8 8.2,8.5 Z" id="Path" fill="#008774" fill-rule="nonzero"></path>
                        <path d="M8.7,3.1 C5.9,3.1 3.6,5.4 3.6,8.2 C3.6,8.6 3.7,9.1 3.8,9.5 L3.8,9.5 C3.8,9.6 3.9,9.8 3.9,9.9 C4,10 4,10 4.1,10 L5.2,10 C5.3,10 5.4,9.9 5.4,9.8 C5.4,9.8 5.4,9.8 5.4,9.7 C5.4,9.6 5.3,9.5 5.3,9.4 L5.3,9.4 C4.6,7.4 5.6,5.3 7.6,4.6 C9.6,3.9 11.6,5 12.3,7 C12.6,7.8 12.6,8.7 12.3,9.6 L12.3,9.6 C12.3,9.7 12.2,9.8 12.2,9.9 C12.2,10 12.2,10.1 12.3,10.1 C12.3,10.1 12.3,10.1 12.4,10.1 L13.5,10.1 C13.6,10.1 13.6,10.1 13.6,10 C13.6,9.9 13.7,9.7 13.7,9.6 L13.7,9.6 C14.4,6.9 12.8,4.1 10.1,3.4 C9.6,3.2 9.2,3.1 8.7,3.1 Z" id="Path" fill="#00AE9E" fill-rule="nonzero"></path>
                        <path d="M11.6,4.5 C11.6,2 9.5,0 7.1,0 C4.6,0 2.5,2 2.5,4.5 C2.5,4.6 2.5,4.8 2.5,4.9 L3.8,4.9 C3.7,3.1 5,1.6 6.7,1.4 C8.5,1.2 10,2.5 10.2,4.3 C10.2,4.4 10.2,4.5 10.2,4.5 C10.2,4.6 10.2,4.6 10.2,4.7 L10.2,4.7 C10.2,5.3 9.9,5.9 9.6,6.4 C9.5,6.5 9.6,6.6 9.6,6.6 C9.6,6.6 9.7,6.6 9.7,6.6 L10.9,6.6 C11,6.6 11,6.6 11.1,6.5 C11.4,5.9 11.6,5.2 11.6,4.6 L11.6,4.6 C11.6,4.6 11.6,4.5 11.6,4.5 Z" id="Path" fill="#008774" fill-rule="nonzero"></path>
                    </g>
                </g>
            </g>
        </g>
    </g>
</svg>
